Origami/64x64/apps/appimagekit-gravit-designer.svg

<svg width="64" height="64" version="1.1" viewBox="0 0 64 64" xmlns="http://www.w3.org/2000/svg">
 <circle cx="32" cy="33" r="28" style="opacity:.2"/>
 <path d="m32 4c-1.419452 0.00724-2.836296 0.122424-4.238282 0.3445314-2.62263 2.4228726-21.391231 21.059105-23.373437 23.212109-0.0250446 0.157476-0.0487424 0.315164-0.0710934 0.473046 0.563742-0.460726 1.4173276-1.191468 2.392578-2.075388 0.480781-0.435756 1.0737308-0.95064 1.3179688-1.145704 0.2442366-0.195066 0.6955542-0.58525 1.0007812-0.866796 0.8477116-0.781946 2.852445-2.558514 3.439843-3.04883 0.288166-0.24054 1.407903-1.225338 2.488282-2.1875 1.080378-0.962159 2.476976-2.19252 3.103516-2.734375 0.626539-0.541853 1.925938-1.723603 2.887499-2.625 1.854638-1.738593 7.583174-6.8189626 8.21953-7.289843 0.207886-0.153828 0.401158-0.2578498 0.429298-0.2296874 0.0622 0.062236-0.298742 0.6677608-1.572266 2.633203-0.534376 0.8247094-2.6208 4.0589134-4.6375 7.1859374-2.016702 3.127023-4.519496 7.006429-5.561718 8.621483-1.04222 1.615058-3.345593 5.186128-5.11875 7.935158s-4.086808 6.332292-5.1406246 7.965234c-0.6471668 1.002818-1.1347058 1.79445-1.4820314 2.38164 4.021269 9.856442 13.283358 16.580042 23.900692 17.34961 0.799622 0.0092-0.448906-0.0539 0.799622 0.0092 3.499146-13.139796 6.416776-35.806668 14.118122-51.90663 0.32435-0.6780664-0.866484-0.8277062-0.712192-1.1685852-3.797516-1.8518532-7.964874-2.8203112-12.189838-2.8328124z" style="fill:#c63166"/>
 <path d="m30.266406 4.1011718a28 28 0 0 0 -1.796484 0.15039 28 28 0 0 1 1.796484 -0.15039z" style="fill:#d8d342"/>
 <path d="m27.746094 5.3613281a28 28 0 0 0 -23.113282 21.941406c0.5677309-0.603973 1.8870568-1.943084 3.7304687-3.794922-1.8489545 1.857616-3.1629995 3.196631-3.7304687 3.800782a28 28 0 0 0 -0.2363281 1.236328c1.9985328-2.168724 20.700986-20.734306 23.34961-23.183594zm1.849609 1.4648438c-0.02814-0.028162-0.219848 0.076641-0.427734 0.2304687-0.636356 0.4708804-6.366065 5.5504704-8.220703 7.2890624-0.961561 0.901397-2.26018 2.083147-2.886719 2.625-0.62654 0.541855-2.023138 1.772216-3.103516 2.734375-1.080379 0.962162-2.200115 1.94696-2.488281 2.1875-0.587397 0.490316-2.5917415 2.266882-3.4394531 3.048828-0.305227 0.281544-0.7577166 0.672122-1.0019531 0.867188-0.2442382 0.19506-0.8375784 0.710728-1.3183594 1.146484-0.9752504 0.88392-1.8288358 1.613497-2.3925782 2.074219a28 28 0 0 0 -0.296875 3.332031 28 28 0 0 0 2.0703126 10.177734c-0.0014149 0.002391-0.0044493 0.007382-0.0058594 0.009766 0.0162682 0.039875 0.0362948 0.077416 0.0527344 0.117188a28 28 0 0 0 0.2070312 0.46289c0.3270605-0.542497 0.6894262-1.13467 1.2226562-1.960937 1.0538166-1.632942 3.3674678-5.215814 5.1406248-7.964844s4.074968-6.320489 5.117188-7.935547c1.042222-1.615054 3.545798-5.494071 5.5625-8.621094 2.0167-3.127024 4.102343-6.36279 4.636719-7.1874996 1.273523-1.9654422 1.634467-2.5705769 1.572265-2.6328125z" style="opacity:.2"/>
 <path d="m27.745314 4.3609376a28 28 0 0 0 -23.34883 23.184764c1.9985328-2.168724 20.700206-20.735476 23.34883-23.184764z" style="fill:#b8da6c"/>
 <path d="m4.3964844 27.545702c-0.00115 0.0013-0.00706 0.0096-0.0082 0.011a28 28 0 0 0 -0.06289 0.410158 28 28 0 0 1 0.071094 -0.421096z" style="fill:#d8d342"/>
 <path d="m41.083594 5.5667968v0.00548a28 28 0 0 1 0.70547 0.2324158 28 28 0 0 0 -0.70547 -0.2378906z" style="fill:#d8d342"/>
 <path d="m41.789064 5.8046876a28 28 0 0 1 2.13828 0.9160156 28 28 0 0 0 -2.13828 -0.9160156z" style="fill:#d8d342"/>
 <path d="m43.927344 6.7207032a28 28 0 0 1 0.259766 0.114844l0.0028-0.00272a28 28 0 0 0 -0.2625 -0.11211z" style="fill:#d8d342"/>
 <path d="m29.596484 5.8265624c-0.02814-0.028162-0.221412 0.07586-0.429298 0.2296876-0.636356 0.4708804-6.364892 5.551251-8.21953 7.289843-0.961561 0.901397-2.26096 2.083147-2.887499 2.625-0.62654 0.541855-2.023138 1.772216-3.103516 2.734375-1.080379 0.962162-2.200116 1.94696-2.488282 2.1875-0.587397 0.490316-2.5921318 2.266884-3.4398434 3.04883-0.305227 0.281544-0.7565446 0.67173-1.0007812 0.866796-0.244238 0.19506-0.8371878 0.709948-1.3179688 1.145704-0.9752504 0.88392-1.828836 1.614666-2.3925782 2.075388a28 28 0 0 0 -0.3171874 3.970314 28 28 0 0 0 3.5929686 13.691016v-0.06562a28 28 0 0 1 -0.2515622 -0.423832 28 28 0 0 1 -0.5332032 -1.107424 28 28 0 0 1 -0.7246096 -1.544922c0.3473256-0.58719 0.8348646-1.378822 1.4820314-2.38164 1.0538166-1.632942 3.367468-5.216204 5.140625-7.965234s4.07653-6.3201 5.11875-7.935158c1.042222-1.615054 3.545016-5.49446 5.561718-8.621483 2.0167-3.127024 4.103124-6.361228 4.6375-7.1859374 1.273524-1.9654422 1.634468-2.5709674 1.572266-2.633203z" style="fill:#b8da6c"/>
 <path d="m59.816798 34.91211-24.934766 24.934764a28 28 0 0 0 24.934766 -24.934764z" style="fill:#778b3c"/>
 <path d="m44.18711 6.8355468c-0.15368 0.3395596-0.26438 0.5951708-0.587892 1.2714846-7.701346 16.099963-12.556134 33.444041-13.35742 47.709375-0.07334 1.30579-0.17204 2.909996-0.21875 3.562892l-0.03828 0.508592c0.670176 0.061576 1.342358 0.09897 2.015232 0.11211 0.96267-0.0014 1.924624-0.05258 2.882032-0.15312l24.934766-24.93477c0.111638-0.96686 0.172788-1.938884 0.183202-2.91211-0.016922-10.72423-6.157766-20.496698-15.81289-25.164453zm-9.305078 53.011327c13.138274-1.375746 23.527738-11.746972 24.926562-24.88281-1.398824 13.135838-11.788288 23.507064-24.926562 24.88281zm-4.897266 0.04102v0.011z" style="fill:#eddf36"/>
 <path d="M 32 4 A 28 28 0 0 0 4 32 A 28 28 0 0 0 4.0175781 32.492188 A 28 28 0 0 1 32 5 A 28 28 0 0 1 59.974609 32.492188 A 28 28 0 0 0 60 32 A 28 28 0 0 0 32 4 z" style="fill:#ffffff;opacity:.2"/>
 <path d="m59.816406 34.912109l-24.933594 24.935547a28 28 0 0 0 1.185547 -0.185547l23.591797-23.59375a28 28 0 0 0 0.15625 -1.15625z" style="opacity:.2"/>
</svg>

<svg xmlns="http://www.w3.org/2000/svg" width="64" height="64" version="1.1" viewBox="0 0 64 64">
 <circle style="opacity:0.2" cx="32" cy="33" r="28"/>
 <path style="fill:#c63166" d="M 32,4 C 30.580548,4.00724 29.163704,4.122424 27.761718,4.3445314 25.139088,6.767404 6.370487,25.403636 4.3882814,27.55664 4.3632368,27.714116 4.339539,27.871804 4.317188,28.029686 4.88093,27.56896 5.7345156,26.838218 6.709766,25.954298 c 0.480781,-0.435756 1.0737308,-0.95064 1.3179688,-1.145704 0.2442366,-0.195066 0.6955542,-0.58525 1.0007812,-0.866796 0.8477116,-0.781946 2.852445,-2.558514 3.439843,-3.04883 0.288166,-0.24054 1.407903,-1.225338 2.488282,-2.1875 1.080378,-0.962159 2.476976,-2.19252 3.103516,-2.734375 0.626539,-0.541853 1.925938,-1.723603 2.887499,-2.625 1.854638,-1.738593 7.583174,-6.8189626 8.21953,-7.289843 0.207886,-0.153828 0.401158,-0.2578498 0.429298,-0.2296874 0.0622,0.062236 -0.298742,0.6677608 -1.572266,2.633203 -0.534376,0.8247094 -2.6208,4.0589134 -4.6375,7.1859374 -2.016702,3.127023 -4.519496,7.006429 -5.561718,8.621483 -1.04222,1.615058 -3.345593,5.186128 -5.11875,7.935158 -1.773157,2.74903 -4.086808,6.332292 -5.1406246,7.965234 -0.6471668,1.002818 -1.1347058,1.79445 -1.4820314,2.38164 4.021269,9.856442 13.283358,16.580042 23.900692,17.34961 0.799622,0.0092 -0.448906,-0.0539 0.799622,0.0092 C 34.283054,46.768232 37.200684,24.10136 44.90203,8.0013976 45.22638,7.3233312 44.035546,7.1736914 44.189838,6.8328124 40.392322,4.9809592 36.224964,4.0125012 32,4 Z"/>
 <path style="fill:#d8d342" d="m 30.266406,4.1011718 a 28,28 0 0 0 -1.796484,0.15039 28,28 0 0 1 1.796484,-0.15039 z"/>
 <path style="opacity:0.2" d="M 27.746094 5.3613281 A 28 28 0 0 0 4.6328125 27.302734 C 5.2005434 26.698761 6.5198693 25.35965 8.3632812 23.507812 C 6.5143267 25.365428 5.2002817 26.704443 4.6328125 27.308594 A 28 28 0 0 0 4.3964844 28.544922 C 6.3950172 26.376198 25.09747 7.8106163 27.746094 5.3613281 z M 29.595703 6.8261719 C 29.567563 6.7980099 29.375855 6.9028129 29.167969 7.0566406 C 28.531613 7.527521 22.801904 12.607111 20.947266 14.345703 C 19.985705 15.2471 18.687086 16.42885 18.060547 16.970703 C 17.434007 17.512558 16.037409 18.742919 14.957031 19.705078 C 13.876652 20.66724 12.756916 21.652038 12.46875 21.892578 C 11.881353 22.382894 9.8770085 24.15946 9.0292969 24.941406 C 8.7240699 25.22295 8.2715803 25.613528 8.0273438 25.808594 C 7.7831056 26.003654 7.1897654 26.519322 6.7089844 26.955078 C 5.733734 27.838998 4.8801486 28.568575 4.3164062 29.029297 A 28 28 0 0 0 4.0195312 32.361328 A 28 28 0 0 0 6.0898438 42.539062 C 6.0884289 42.541453 6.0853945 42.546444 6.0839844 42.548828 C 6.1002526 42.588703 6.1202792 42.626244 6.1367188 42.666016 A 28 28 0 0 0 6.34375 43.128906 C 6.6708105 42.586409 7.0331762 41.994236 7.5664062 41.167969 C 8.6202228 39.535027 10.933874 35.952155 12.707031 33.203125 C 14.480188 30.454095 16.781999 26.882636 17.824219 25.267578 C 18.866441 23.652524 21.370017 19.773507 23.386719 16.646484 C 25.403419 13.51946 27.489062 10.283694 28.023438 9.4589844 C 29.296961 7.4935422 29.657905 6.8884075 29.595703 6.8261719 z"/>
 <path style="fill:#b8da6c" d="M 27.745314,4.3609376 A 28,28 0 0 0 4.3964844,27.545702 C 6.3950172,25.376978 25.09669,6.8102258 27.745314,4.3609376 Z"/>
 <path style="fill:#d8d342" d="m 4.3964844,27.545702 c -0.00115,0.0013 -0.00706,0.0096 -0.0082,0.011 a 28,28 0 0 0 -0.06289,0.410158 28,28 0 0 1 0.071094,-0.421096 z"/>
 <path style="fill:#d8d342" d="m 41.083594,5.5667968 0,0.00548 a 28,28 0 0 1 0.70547,0.2324158 28,28 0 0 0 -0.70547,-0.2378906 z"/>
 <path style="fill:#d8d342" d="m 41.789064,5.8046876 a 28,28 0 0 1 2.13828,0.9160156 28,28 0 0 0 -2.13828,-0.9160156 z"/>
 <path style="fill:#d8d342" d="m 43.927344,6.7207032 a 28,28 0 0 1 0.259766,0.114844 c 0,0 0.0028,-0.00272 0.0028,-0.00272 a 28,28 0 0 0 -0.2625,-0.11211 z"/>
 <path style="fill:#b8da6c" d="m 29.596484,5.8265624 c -0.02814,-0.028162 -0.221412,0.07586 -0.429298,0.2296876 -0.636356,0.4708804 -6.364892,5.551251 -8.21953,7.289843 -0.961561,0.901397 -2.26096,2.083147 -2.887499,2.625 -0.62654,0.541855 -2.023138,1.772216 -3.103516,2.734375 -1.080379,0.962162 -2.200116,1.94696 -2.488282,2.1875 -0.587397,0.490316 -2.5921318,2.266884 -3.4398434,3.04883 -0.305227,0.281544 -0.7565446,0.67173 -1.0007812,0.866796 -0.244238,0.19506 -0.8371878,0.709948 -1.3179688,1.145704 -0.9752504,0.88392 -1.828836,1.614666 -2.3925782,2.075388 A 28,28 0 0 0 4,32 28,28 0 0 0 7.5929686,45.691016 l 0,-0.06562 A 28,28 0 0 1 7.3414064,45.201564 28,28 0 0 1 6.8082032,44.09414 28,28 0 0 1 6.0835936,42.549218 c 0.3473256,-0.58719 0.8348646,-1.378822 1.4820314,-2.38164 1.0538166,-1.632942 3.367468,-5.216204 5.140625,-7.965234 1.773157,-2.74903 4.07653,-6.3201 5.11875,-7.935158 1.042222,-1.615054 3.545016,-5.49446 5.561718,-8.621483 2.0167,-3.127024 4.103124,-6.361228 4.6375,-7.1859374 1.273524,-1.9654422 1.634468,-2.5709674 1.572266,-2.633203 z"/>
 <path style="fill:#778b3c" d="M 59.816798,34.91211 34.882032,59.846874 A 28,28 0 0 0 59.816798,34.91211 Z"/>
 <path style="fill:#eddf36" d="M 44.18711,6.8355468 C 44.03343,7.1751064 43.92273,7.4307176 43.599218,8.1070314 35.897872,24.206994 31.043084,41.551072 30.241798,55.816406 c -0.07334,1.30579 -0.17204,2.909996 -0.21875,3.562892 l -0.03828,0.508592 C 30.654944,59.949466 31.327126,59.98686 32,60 c 0.96267,-0.0014 1.924624,-0.05258 2.882032,-0.15312 L 59.816798,34.91211 C 59.928436,33.94525 59.989586,32.973226 60,32 59.983078,21.27577 53.842234,11.503302 44.18711,6.8355468 Z M 34.882032,59.846874 C 48.020306,58.471128 58.40977,48.099902 59.808594,34.964064 58.40977,48.099902 48.020306,58.471128 34.882032,59.846874 Z m -4.897266,0.04102 c 0,0 0,-0.0102 0,0.011 z"/>
 <path style="opacity:0.2;fill:#ffffff" d="M 32 4 A 28 28 0 0 0 4 32 A 28 28 0 0 0 4.0175781 32.492188 A 28 28 0 0 1 32 5 A 28 28 0 0 1 59.974609 32.492188 A 28 28 0 0 0 60 32 A 28 28 0 0 0 32 4 z"/>
 <path style="opacity:0.2" d="M 59.816406 34.912109 L 34.882812 59.847656 A 28 28 0 0 0 36.068359 59.662109 L 59.660156 36.068359 A 28 28 0 0 0 59.816406 34.912109 z"/>
</svg>
